svg/blobs-icons/no-decorations/gas-station-pump.svg

<svg xmlns="http://www.w3.org/2000/svg" xmlns:xlink="http://www.w3.org/1999/xlink" preserveAspectRatio="xMidYMid" width="218" height="214" viewBox="0 0 218 214"><defs><style>.cls-3{fill:#0cb04a}.cls-4{fill:#ededed}.cls-5{fill:#020403;opacity:.35}.cls-6{fill:#142a3b}.cls-10{fill:#fff}.cls-11{fill:#fbb713}</style></defs><g id="group-132svg"><path d="M43.939 210.063s0-193.906.0-193.906c0-8.925 7.22-16.16 16.127-16.16h88.695C157.667-.003 164.887 7.232 164.887 16.157V210.063s-120.948.0-120.948.0z" id="path-1" class="cls-3" fill-rule="evenodd"/><path d="M60.066 80.792s0-64.635.0-64.635 88.695.0 88.695.0.0 64.635.0 64.635-88.695.0-88.695.0z" id="path-2" class="cls-4" fill-rule="evenodd"/><path d="M68.128 24.235s80.633.0 80.633.0.0-8.078.0-8.078-88.695.0-88.695.0.0 64.635.0 64.635 8.062.0 8.062.0.0-56.557.0-56.557z" id="path-3" class="cls-5" fill-rule="evenodd"/><path d="M213.27 84.407C212.209 84.407 211.157 83.942 210.444 83.047L194.316 62.848C193.07 61.29 193.324 59.015 194.884 57.769 196.445 56.524 198.721 56.779 199.964 58.338l16.128 20.198C217.338 80.097 217.084 82.37 215.523 83.616 214.858 84.148 214.061 84.407 213.27 84.407z" id="path-4" class="cls-6" fill-rule="evenodd"/><path d="M201.173 165.202C192.511 165.202 185.463 158.144 185.463 149.468V88.872C185.463 86.409 183.467 84.407 181.014 84.407H164.887c-1.995.0-3.614-1.619-3.614-3.616.0-1.99499999999999 1.619-3.613 3.614-3.613h16.127c6.44.0 11.679 5.245 11.679 11.694v60.596C192.693 154.158 196.498 157.972 201.173 157.972S209.653 154.158 209.653 149.468V80.791C209.653 78.796 211.272 77.178 213.268 77.178c1.995.0 3.614 1.61800000000001 3.614 3.613v68.677c0 8.67600000000002-7.047 15.734-15.709 15.734z" id="path-5" class="cls-6" fill-rule="evenodd"/><path d="M102.332 80.922C101.103 80.922 99.905 80.296 99.227 79.166L77.12 42.252C76.094 40.539 76.651 38.32 78.364 37.294 80.073 36.268 82.295 36.824 83.322 38.537L105.429 75.45C106.455 77.164 105.898 79.384 104.185 80.41 103.604 80.758 102.963 80.922 102.332 80.922z" id="path-6" class="cls-6" fill-rule="evenodd"/><path d="M104.414 105.031c-6.047 11.744-24.19 23.501-24.19 41.13.0 12.977 10.835 23.506 24.19 23.506 13.358.0 24.189-10.529 24.189-23.506.0-17.629-18.14-29.386-24.189-41.13z" id="path-7" class="cls-6" fill-rule="evenodd"/><path d="M105.556 162.393C93.412 162.393 83.53 152.747 83.53 140.889c0-1.99600000000001 1.618-3.613 3.614-3.613 1.996.0 3.615 1.61699999999999 3.615 3.613C90.759 148.76 97.397 155.164 105.556 155.164 107.552 155.164 109.171 156.782 109.171 158.779 109.171 160.776 107.552 162.393 105.556 162.393z" id="path-8" class="cls-10" fill-rule="evenodd"/><path d="M164.887 205.61s-120.948.0-120.948.0.0-17.504.0-17.504 120.948.0 120.948.0.0 17.504.0 17.504z" id="path-9" class="cls-11" fill-rule="evenodd"/><path d="M148.761-.003s0 201.988.0 201.988-104.822.0-104.822.0S43.939 210.065 43.939 210.065s120.948.0 120.948.0.0-193.908.0-193.908c0-8.925-7.22-16.16-16.126-16.16z" id="path-10" class="cls-5" fill-rule="evenodd"/><path d="M60.066 172.08c-1.997.0-3.615-1.619-3.615-3.613V107.985c0-1.996 1.618-3.615 3.615-3.615 1.996.0 3.614 1.619 3.614 3.615v60.482c0 1.994-1.618 3.613-3.614 3.613z" id="path-11" class="cls-10" fill-rule="evenodd"/><path d="M205.204 213.679s-201.581.0-201.581.0C1.627 213.679.008 212.06.008 210.063.008 208.067 1.627 206.449 3.623 206.449H205.204C207.199 206.449 208.819 208.067 208.819 210.063 208.819 212.06 207.199 213.679 205.204 213.679z" id="path-12" class="cls-6" fill-rule="evenodd"/></g></svg>

<svg xmlns="http://www.w3.org/2000/svg" xmlns:xlink="http://www.w3.org/1999/xlink" preserveAspectRatio="xMidYMid" width="218" height="214" viewBox="0 0 218 214">
  <defs>
    <style>

      .cls-3 {
        fill: #0cb04a;
      }

      .cls-4 {
        fill: #ededed;
      }

      .cls-5 {
        fill: #020403;
        opacity: 0.35;
      }

      .cls-6 {
        fill: #142a3b;
      }

      .cls-10 {
        fill: #ffffff;
      }

      .cls-11 {
        fill: #fbb713;
      }
    </style>
  </defs>
  <g id="group-132svg">
    <path d="M43.939,210.063 C43.939,210.063 43.939,16.157 43.939,16.157 C43.939,7.232 51.159,-0.003 60.066,-0.003 C60.066,-0.003 148.761,-0.003 148.761,-0.003 C157.667,-0.003 164.887,7.232 164.887,16.157 C164.887,16.157 164.887,210.063 164.887,210.063 C164.887,210.063 43.939,210.063 43.939,210.063 Z" id="path-1" class="cls-3" fill-rule="evenodd"/>
    <path d="M60.066,80.792 C60.066,80.792 60.066,16.157 60.066,16.157 C60.066,16.157 148.761,16.157 148.761,16.157 C148.761,16.157 148.761,80.792 148.761,80.792 C148.761,80.792 60.066,80.792 60.066,80.792 Z" id="path-2" class="cls-4" fill-rule="evenodd"/>
    <path d="M68.128,24.235 C68.128,24.235 148.761,24.235 148.761,24.235 C148.761,24.235 148.761,16.157 148.761,16.157 C148.761,16.157 60.066,16.157 60.066,16.157 C60.066,16.157 60.066,80.792 60.066,80.792 C60.066,80.792 68.128,80.792 68.128,80.792 C68.128,80.792 68.128,24.235 68.128,24.235 Z" id="path-3" class="cls-5" fill-rule="evenodd"/>
    <path d="M213.270,84.407 C212.209,84.407 211.157,83.942 210.444,83.047 C210.444,83.047 194.316,62.848 194.316,62.848 C193.070,61.290 193.324,59.015 194.884,57.769 C196.445,56.524 198.721,56.779 199.964,58.338 C199.964,58.338 216.092,78.536 216.092,78.536 C217.338,80.097 217.084,82.370 215.523,83.616 C214.858,84.148 214.061,84.407 213.270,84.407 Z" id="path-4" class="cls-6" fill-rule="evenodd"/>
    <path d="M201.173,165.202 C192.511,165.202 185.463,158.144 185.463,149.468 C185.463,149.468 185.463,88.872 185.463,88.872 C185.463,86.409 183.467,84.407 181.014,84.407 C181.014,84.407 164.887,84.407 164.887,84.407 C162.892,84.407 161.273,82.788 161.273,80.791 C161.273,78.796 162.892,77.178 164.887,77.178 C164.887,77.178 181.014,77.178 181.014,77.178 C187.454,77.178 192.693,82.423 192.693,88.872 C192.693,88.872 192.693,149.468 192.693,149.468 C192.693,154.158 196.498,157.972 201.173,157.972 C205.848,157.972 209.653,154.158 209.653,149.468 C209.653,149.468 209.653,80.791 209.653,80.791 C209.653,78.796 211.272,77.178 213.268,77.178 C215.263,77.178 216.882,78.796 216.882,80.791 C216.882,80.791 216.882,149.468 216.882,149.468 C216.882,158.144 209.835,165.202 201.173,165.202 Z" id="path-5" class="cls-6" fill-rule="evenodd"/>
    <path d="M102.332,80.922 C101.103,80.922 99.905,80.296 99.227,79.166 C99.227,79.166 77.120,42.252 77.120,42.252 C76.094,40.539 76.651,38.320 78.364,37.294 C80.073,36.268 82.295,36.824 83.322,38.537 C83.322,38.537 105.429,75.450 105.429,75.450 C106.455,77.164 105.898,79.384 104.185,80.410 C103.604,80.758 102.963,80.922 102.332,80.922 Z" id="path-6" class="cls-6" fill-rule="evenodd"/>
    <path d="M104.414,105.031 C98.367,116.775 80.224,128.532 80.224,146.161 C80.224,159.138 91.059,169.667 104.414,169.667 C117.772,169.667 128.603,159.138 128.603,146.161 C128.603,128.532 110.463,116.775 104.414,105.031 C104.414,105.031 104.414,105.031 104.414,105.031 Z" id="path-7" class="cls-6" fill-rule="evenodd"/>
    <path d="M105.556,162.393 C93.412,162.393 83.530,152.747 83.530,140.889 C83.530,138.893 85.148,137.276 87.144,137.276 C89.140,137.276 90.759,138.893 90.759,140.889 C90.759,148.760 97.397,155.164 105.556,155.164 C107.552,155.164 109.171,156.782 109.171,158.779 C109.171,160.776 107.552,162.393 105.556,162.393 Z" id="path-8" class="cls-10" fill-rule="evenodd"/>
    <path d="M164.887,205.610 C164.887,205.610 43.939,205.610 43.939,205.610 C43.939,205.610 43.939,188.106 43.939,188.106 C43.939,188.106 164.887,188.106 164.887,188.106 C164.887,188.106 164.887,205.610 164.887,205.610 Z" id="path-9" class="cls-11" fill-rule="evenodd"/>
    <path d="M148.761,-0.003 C148.761,-0.003 148.761,201.985 148.761,201.985 C148.761,201.985 43.939,201.985 43.939,201.985 C43.939,201.985 43.939,210.065 43.939,210.065 C43.939,210.065 164.887,210.065 164.887,210.065 C164.887,210.065 164.887,16.157 164.887,16.157 C164.887,7.232 157.667,-0.003 148.761,-0.003 Z" id="path-10" class="cls-5" fill-rule="evenodd"/>
    <path d="M60.066,172.080 C58.069,172.080 56.451,170.461 56.451,168.467 C56.451,168.467 56.451,107.985 56.451,107.985 C56.451,105.989 58.069,104.370 60.066,104.370 C62.062,104.370 63.680,105.989 63.680,107.985 C63.680,107.985 63.680,168.467 63.680,168.467 C63.680,170.461 62.062,172.080 60.066,172.080 Z" id="path-11" class="cls-10" fill-rule="evenodd"/>
    <path d="M205.204,213.679 C205.204,213.679 3.623,213.679 3.623,213.679 C1.627,213.679 0.008,212.060 0.008,210.063 C0.008,208.067 1.627,206.449 3.623,206.449 C3.623,206.449 205.204,206.449 205.204,206.449 C207.199,206.449 208.819,208.067 208.819,210.063 C208.819,212.060 207.199,213.679 205.204,213.679 Z" id="path-12" class="cls-6" fill-rule="evenodd"/>
  </g>
</svg>
